images/detetorBorda.svg

<?xml version="1.0" encoding="UTF-8" standalone="no"?>
<!-- Created with Digital by H.Neemann -->

<!-- created: Wed Sep 03 15:21:52 BRT 2025 -->

<svg
   width="169.79808mm"
   height="87.823868mm"
   viewBox="187 203 1131.9872 585.49243"
   version="1.1"
   id="svg27"
   sodipodi:docname="detetorBorda.svg"
   inkscape:version="1.3.1 (91b66b0783, 2023-11-16)"
   xmlns:inkscape="http://www.inkscape.org/namespaces/inkscape"
   xmlns:sodipodi="http://sodipodi.sourceforge.net/DTD/sodipodi-0.dtd"
   xmlns="http://www.w3.org/2000/svg"
   xmlns:svg="http://www.w3.org/2000/svg">
  <defs
     id="defs27" />
  <sodipodi:namedview
     id="namedview27"
     pagecolor="#ffffff"
     bordercolor="#000000"
     borderopacity="0.25"
     inkscape:showpageshadow="2"
     inkscape:pageopacity="0.0"
     inkscape:pagecheckerboard="0"
     inkscape:deskcolor="#d1d1d1"
     inkscape:document-units="mm"
     inkscape:zoom="1.5176924"
     inkscape:cx="160.44095"
     inkscape:cy="82.361883"
     inkscape:window-width="1920"
     inkscape:window-height="995"
     inkscape:window-x="-9"
     inkscape:window-y="-9"
     inkscape:window-maximized="1"
     inkscape:current-layer="svg27" />
  <g
     stroke-linecap="square"
     id="g27"
     transform="matrix(2.0071174,0,0,2.0199897,-190.35157,-209.09148)"
     style="stroke-width:0.496637">
    <path
       d="m 540,480 h 40 4"
       stroke="#000000"
       stroke-width="1.98655"
       fill="none"
       id="path1" />
    <path
       d="m 440,480 h 60"
       stroke="#000000"
       stroke-width="1.98655"
       fill="none"
       id="path2" />
    <path
       d="m 340,480 h 60"
       stroke="#000000"
       stroke-width="1.98655"
       fill="none"
       id="path3" />
    <path
       d="m 260,440 v 40 h 40"
       stroke="#000000"
       stroke-width="1.98655"
       fill="none"
       id="path4" />
    <path
       d="m 660,240 h 60"
       stroke="#000000"
       stroke-width="1.98655"
       fill="none"
       id="path5" />
    <path
       d="m 540,260 h 40"
       stroke="#000000"
       stroke-width="1.98655"
       fill="none"
       id="path6" />
    <path
       d="m 440,260 h 60"
       stroke="#000000"
       stroke-width="1.98655"
       fill="none"
       id="path7" />
    <path
       d="m 340,260 h 60"
       stroke="#000000"
       stroke-width="1.98655"
       fill="none"
       id="path8" />
    <path
       d="m 260,220 v 40 h 40"
       stroke="#000000"
       stroke-width="1.98655"
       fill="none"
       id="path9" />
    <path
       d="m 260,260 v 180 h 320 4"
       stroke="#000000"
       stroke-width="1.98655"
       fill="none"
       id="path10" />
    <path
       d="m 680,460 h 40"
       stroke="#000000"
       stroke-width="1.98655"
       fill="none"
       id="path11" />
    <path
       d="m 220,220 h 40 320"
       stroke="#000000"
       stroke-width="1.98655"
       fill="none"
       id="path12" />
    <g
       id="g14"
       style="stroke-width:0.496637">
      <circle
         cx="260"
         cy="260"
         r="4"
         stroke="#000000"
         stroke-width="1.98655"
         fill="#000000"
         id="circle12" />
      <circle
         cx="260"
         cy="440"
         r="4"
         stroke="#000000"
         stroke-width="1.98655"
         fill="#000000"
         id="circle13" />
      <circle
         cx="260"
         cy="220"
         r="4"
         stroke="#000000"
         stroke-width="1.98655"
         fill="#000000"
         id="circle14" />
    </g>
    <g
       id="g15"
       style="stroke-width:0.496637">
      <path
         d="m 301,248 18,12 -18,12 z"
         stroke="#000000"
         stroke-width="1.98655"
         fill="none"
         id="path14" />
      <circle
         cx="330"
         cy="260"
         r="9"
         stroke="#000000"
         stroke-width="1.98655"
         fill="none"
         id="circle15" />
    </g>
    <g
       id="g16"
       style="stroke-width:0.496637">
      <path
         d="m 401,248 18,12 -18,12 z"
         stroke="#000000"
         stroke-width="1.98655"
         fill="none"
         id="path15" />
      <circle
         cx="430"
         cy="260"
         r="9"
         stroke="#000000"
         stroke-width="1.98655"
         fill="none"
         id="circle16" />
    </g>
    <g
       id="g17"
       style="stroke-width:0.496637">
      <path
         d="m 501,248 18,12 -18,12 z"
         stroke="#000000"
         stroke-width="1.98655"
         fill="none"
         id="path16" />
      <circle
         cx="530"
         cy="260"
         r="9"
         stroke="#000000"
         stroke-width="1.98655"
         fill="none"
         id="circle17" />
    </g>
    <g
       id="g18"
       style="stroke-width:0.496637">
      <path
         d="m 301,468 18,12 -18,12 z"
         stroke="#000000"
         stroke-width="1.98655"
         fill="none"
         id="path17" />
      <circle
         cx="330"
         cy="480"
         r="9"
         stroke="#000000"
         stroke-width="1.98655"
         fill="none"
         id="circle18" />
    </g>
    <g
       id="g19"
       style="stroke-width:0.496637">
      <path
         d="m 401,468 18,12 -18,12 z"
         stroke="#000000"
         stroke-width="1.98655"
         fill="none"
         id="path18" />
      <circle
         cx="430"
         cy="480"
         r="9"
         stroke="#000000"
         stroke-width="1.98655"
         fill="none"
         id="circle19" />
    </g>
    <g
       id="g20"
       style="stroke-width:0.496637">
      <path
         d="m 501,468 18,12 -18,12 z"
         stroke="#000000"
         stroke-width="1.98655"
         fill="none"
         id="path19" />
      <circle
         cx="530"
         cy="480"
         r="9"
         stroke="#000000"
         stroke-width="1.98655"
         fill="none"
         id="circle20" />
    </g>
    <g
       id="g21"
       style="stroke-width:0.496637">
      <path
         d="m 630,270 h -49 v -60 h 49 c 10,0 30,10 29,30 0,20 -19,30 -29,30 z"
         stroke="#000000"
         stroke-width="1.98655"
         fill="none"
         id="path20" />
    </g>
    <g
       id="g22"
       style="stroke-width:0.496637">
      <path
         d="m 610,490 h -30 c 10,-16 10,-44 0,-60 h 20 c 30,0 50,10 60,30 -10,20 -30,30 -50,30 z"
         stroke="#000000"
         stroke-width="1.98655"
         fill="none"
         id="path21" />
      <circle
         cx="670"
         cy="460"
         r="9"
         stroke="#000000"
         stroke-width="1.98655"
         fill="none"
         id="circle21" />
    </g>
    <g
       id="g23"
       style="stroke-width:0.496637">
      <path
         d="m 189,205 h 30 v 30 h -30 z"
         stroke="#000000"
         stroke-width="1.98655"
         fill="none"
         id="path22" />
      <circle
         cx="204"
         cy="220"
         r="9"
         stroke="#000000"
         stroke-width="1.98655"
         fill="none"
         id="circle22" />
    </g>
    <g
       id="g24"
       style="stroke-width:0.496637">
      <circle
         cx="736"
         cy="240"
         r="9"
         stroke="#000000"
         stroke-width="1.98655"
         fill="none"
         id="circle23" />
      <circle
         cx="736"
         cy="240"
         r="15"
         stroke="#000000"
         stroke-width="1.98655"
         fill="none"
         id="circle24" />
    </g>
    <g
       id="g26"
       style="stroke-width:0.496637">
      <circle
         cx="736"
         cy="460"
         r="9"
         stroke="#000000"
         stroke-width="1.98655"
         fill="none"
         id="circle25" />
      <circle
         cx="736"
         cy="460"
         r="15"
         stroke="#000000"
         stroke-width="1.98655"
         fill="none"
         id="circle26" />
    </g>
  </g>
</svg>

<?xml version="1.0" encoding="UTF-8" standalone="no"?>
<!-- Created with Digital by H.Neemann -->
<!-- created: Wed Sep 03 15:21:52 BRT 2025 -->

<svg
   xmlns:svg="http://www.w3.org/2000/svg"
   xmlns="http://www.w3.org/2000/svg"
   width="84.9mm"
   height="43.65mm"
   viewBox="187 203 566 291">
<g stroke-linecap="square">
<path d="M 540,480 L 580,480 L 584,480" stroke="#000000" stroke-width="4.0" fill="none"/>
<path d="M 440,480 L 500,480" stroke="#000000" stroke-width="4.0" fill="none"/>
<path d="M 340,480 L 400,480" stroke="#000000" stroke-width="4.0" fill="none"/>
<path d="M 260,440 L 260,480 L 300,480" stroke="#000000" stroke-width="4.0" fill="none"/>
<path d="M 660,240 L 720,240" stroke="#000000" stroke-width="4.0" fill="none"/>
<path d="M 540,260 L 580,260" stroke="#000000" stroke-width="4.0" fill="none"/>
<path d="M 440,260 L 500,260" stroke="#000000" stroke-width="4.0" fill="none"/>
<path d="M 340,260 L 400,260" stroke="#000000" stroke-width="4.0" fill="none"/>
<path d="M 260,220 L 260,260 L 300,260" stroke="#000000" stroke-width="4.0" fill="none"/>
<path d="M 260,260 L 260,440 L 580,440 L 584,440" stroke="#000000" stroke-width="4.0" fill="none"/>
<path d="M 680,460 L 720,460" stroke="#000000" stroke-width="4.0" fill="none"/>
<path d="M 220,220 L 260,220 L 580,220" stroke="#000000" stroke-width="4.0" fill="none"/>
<g>
<circle cx="260.0" cy="260.0" r="4.0" stroke="#000000" stroke-width="4.0" fill="#000000" />
<circle cx="260.0" cy="440.0" r="4.0" stroke="#000000" stroke-width="4.0" fill="#000000" />
<circle cx="260.0" cy="220.0" r="4.0" stroke="#000000" stroke-width="4.0" fill="#000000" />
</g>
<g>
<path d="M 301,248 L 319,260 L 301,272 Z" stroke="#000000" stroke-width="4.0" fill="none"/>
<circle cx="330.0" cy="260.0" r="9.0" stroke="#000000" stroke-width="4.0" fill="none" />
</g>
<g>
<path d="M 401,248 L 419,260 L 401,272 Z" stroke="#000000" stroke-width="4.0" fill="none"/>
<circle cx="430.0" cy="260.0" r="9.0" stroke="#000000" stroke-width="4.0" fill="none" />
</g>
<g>
<path d="M 501,248 L 519,260 L 501,272 Z" stroke="#000000" stroke-width="4.0" fill="none"/>
<circle cx="530.0" cy="260.0" r="9.0" stroke="#000000" stroke-width="4.0" fill="none" />
</g>
<g>
<path d="M 301,468 L 319,480 L 301,492 Z" stroke="#000000" stroke-width="4.0" fill="none"/>
<circle cx="330.0" cy="480.0" r="9.0" stroke="#000000" stroke-width="4.0" fill="none" />
</g>
<g>
<path d="M 401,468 L 419,480 L 401,492 Z" stroke="#000000" stroke-width="4.0" fill="none"/>
<circle cx="430.0" cy="480.0" r="9.0" stroke="#000000" stroke-width="4.0" fill="none" />
</g>
<g>
<path d="M 501,468 L 519,480 L 501,492 Z" stroke="#000000" stroke-width="4.0" fill="none"/>
<circle cx="530.0" cy="480.0" r="9.0" stroke="#000000" stroke-width="4.0" fill="none" />
</g>
<g>
<path d="M 630,270 L 581,270 L 581,210 L 630,210 C 640,210 660,220 659,240 C 659,260 640,270 630,270 Z" stroke="#000000" stroke-width="4.0" fill="none"/>
</g>
<g>
<path d="M 610,490 L 580,490 C 590,474 590,446 580,430 L 600,430 C 630,430 650,440 660,460 C 650,480 630,490 610,490 Z" stroke="#000000" stroke-width="4.0" fill="none"/>
<circle cx="670.0" cy="460.0" r="9.0" stroke="#000000" stroke-width="4.0" fill="none" />
</g>
<g>
<path d="M 189,205 L 219,205 L 219,235 L 189,235 Z" stroke="#000000" stroke-width="4.0" fill="none"/>
<circle cx="204.0" cy="220.0" r="9.0" stroke="#000000" stroke-width="4.0" fill="none" />
</g>
<g>
<circle cx="736.0" cy="240.0" r="9.0" stroke="#000000" stroke-width="4.0" fill="none" />
<circle cx="736.0" cy="240.0" r="15.0" stroke="#000000" stroke-width="4.0" fill="none" />
</g>
<g>
<circle cx="736.0" cy="460.0" r="9.0" stroke="#000000" stroke-width="4.0" fill="none" />
<circle cx="736.0" cy="460.0" r="15.0" stroke="#000000" stroke-width="4.0" fill="none" />
</g>
</g>
</svg>
